src/icons/link.svg

<svg width="16" height="16" viewBox="0 0 16 16" fill="none" xmlns="http://www.w3.org/2000/svg">
<path fill-rule="evenodd" clip-rule="evenodd" d="M4.40012 3H7.48512C8.38686 3 9.25166 3.35821 9.88929 3.99584C10.5269 4.63346 10.8851 5.49826 10.8851 6.4V6.605C10.8838 7.50587 10.525 8.36939 9.88752 9.00593C9.25004 9.64247 8.38599 10 7.48512 10H7.00012V9H7.48512C8.11905 8.99868 8.7267 8.74662 9.17542 8.29883C9.62415 7.85105 9.87748 7.24392 9.88012 6.61V6.4C9.88013 5.76521 9.62864 5.15627 9.18072 4.70647C8.73279 4.25667 8.12491 4.00265 7.49012 4H4.40012C3.7636 4 3.15315 4.25286 2.70307 4.70294C2.48021 4.9258 2.30342 5.19038 2.18281 5.48156C2.0622 5.77274 2.00012 6.08483 2.00012 6.4V6.605C2.00162 7.17053 2.20328 7.71727 2.56936 8.14833C2.93544 8.57938 3.4423 8.86693 4.00012 8.96V9.96C3.17793 9.86262 2.41952 9.46858 1.86719 8.85181C1.31485 8.23503 1.00655 7.43791 1.00012 6.61V6.4C1.00144 5.49867 1.36008 4.63463 1.99742 3.9973C2.63476 3.35996 3.49879 3.00132 4.40012 3ZM12.0002 7.04V6.04C12.8241 6.1376 13.5839 6.53307 14.1365 7.15194C14.689 7.77081 14.9962 8.57036 15.0002 9.4V9.605C14.9976 10.5046 14.6391 11.3666 14.003 12.0027C13.3668 12.6388 12.5048 12.9974 11.6052 13H8.51524C7.6161 12.9987 6.75409 12.6413 6.11783 12.0059C5.48158 11.3706 5.12288 10.5091 5.12024 9.61V9.4C5.12024 8.49913 5.47777 7.63508 6.11431 6.9976C6.75085 6.36012 7.61437 6.00132 8.51524 6H9.00024V7H8.51524C7.87959 7.00132 7.27042 7.25477 6.82141 7.70471C6.37241 8.15465 6.12024 8.76435 6.12024 9.4V9.605C6.12156 10.2398 6.37431 10.8482 6.82318 11.2971C7.27204 11.7459 7.88045 11.9987 8.51524 12H11.6052C12.2392 11.9987 12.8468 11.7466 13.2955 11.2988C13.7443 10.851 13.9976 10.2439 14.0002 9.61V9.4C13.9999 8.83361 13.7988 8.28568 13.4326 7.85358C13.0664 7.42149 12.5589 7.13321 12.0002 7.04Z" fill="white"/>
</svg>

<svg width="16" height="16" xmlns="http://www.w3.org/2000/svg"><path fill-rule="evenodd" clip-rule="evenodd" d="M4.4 3h3.085a3.4 3.4 0 0 1 3.4 3.4v.205A3.4 3.4 0 0 1 7.485 10H7V9h.485A2.4 2.4 0 0 0 9.88 6.61V6.4A2.4 2.4 0 0 0 7.49 4H4.4A2.4 2.4 0 0 0 2 6.4v.205A2.394 2.394 0 0 0 4 8.96v1a3.4 3.4 0 0 1-3-3.35V6.4A3.405 3.405 0 0 1 4.4 3zM12 7.04v-1a3.4 3.4 0 0 1 3 3.36v.205A3.405 3.405 0 0 1 11.605 13h-3.09A3.4 3.4 0 0 1 5.12 9.61V9.4A3.4 3.4 0 0 1 8.515 6H9v1h-.485A2.4 2.4 0 0 0 6.12 9.4v.205A2.4 2.4 0 0 0 8.515 12h3.09A2.4 2.4 0 0 0 14 9.61V9.4a2.394 2.394 0 0 0-2-2.36z"/></svg>
